X:1071
T:Ballina Lasses, The
T:Ballina Lass, The
T:Come Up to the Room, I Want Ye
T:Come Up in the Room, I Want You
R:reel
D:Frankie Gavin: Frankie Goes to Town
D:The Tap Room Trio
D:Steph Geremia: Up She Flew
Z:id:hn-reel-1071
M:C|
L:1/8
K:G
d2BG DGBd | e2dg eage | dcBG DGBd | egdc BG~G2 :|
|: g2bg egde | g2bg agab |1 g2bg egdB | dega bggf :|2 g2fg egdB | dega bage ||
P:Variations
|: dcBG DGBd | egdg eage | dGBG DGBd |1 e2dc BGGB :|2 e2dc BGBd ||
|: gabg (3efg de | gabg eaaf |1 gabg egdB | dega bggd :|2 g2fg egdB | dega bage ||

